**harm	**harte	**kern	**silbe	**rhyme	**timestamp	**phrase	**leadinstrument
*M4/4	*M4/4	*ICvox	*	*	*	*	*
*	*	*VRlead	*	*	*	*	*
*	*	*Hstimme	*	*	*	*	*
*D:	*D:	*D:	*	*	*	*	*
*	*	*M4/4	*	*	*	*	*
*	*	*clefF4	*	*	*	*	*
1r;	N	r;	.	.	0	.	r
=1	=1	=1	=1	=1	=1	=1	=1
*>Letter>A	*>Letter>A	*>Letter>A	*>Letter>A	*>Letter>A	*>Letter>A	*>Letter>A	*>Letter>A
*>Label>Intro	*>Label>Intro	*>Label>Intro	*>Label>Intro	*>Label>Intro	*>Label>Intro	*>Label>Intro	*>Label>Intro
1r	N	1r	.	.	1.012	newline	guitar
=2	=2	=2	=2	=2	=2	=2	=2
1I	D:maj	1r	.	.	2.075	.	guitar
=3	=3	=3	=3	=3	=3	=3	=3
1I	D:maj	1r	.	.	3.019	.	guitar
=4	=4	=4	=4	=4	=4	=4	=4
1I	D:maj	1r	.	.	3.964	.	guitar
=5	=5	=5	=5	=5	=5	=5	=5
1I	D:maj	2r	.	.	4.908	.	guitar
.	.	4F#	Hap-	.	.	.	.
.	.	4G	-py	.	.	.	.
=6	=6	=6	=6	=6	=6	=6	=6
*>Letter>B	*>Letter>B	*>Letter>B	*>Letter>B	*>Letter>B	*>Letter>B	*>Letter>B	*>Letter>B
*>Label>Verse	*>Label>Verse	*>Label>Verse	*>Label>Verse	*>Label>Verse	*>Label>Verse	*>Label>Verse	*>Label>Verse
1I	D:maj	4A	Jack	.	5.853	newline	voice
.	.	4r	.	.	.	.	.
.	.	4F#	was-	.	.	.	.
.	.	4G	-'nt	.	.	.	.
=7	=7	=7	=7	=7	=7	=7	=7
1I	D:maj	2A	old	.	6.793	.	voice
.	.	4F#	but	.	.	.	.
.	.	4A	he	.	.	.	.
=8	=8	=8	=8	=8	=8	=8	=8
*M2/4	*M2/4	*M2/4	*	*	*M2/4	*M2/4	*M2/4
2V	A:maj	4G	was	.	7.733	.	voice
.	.	4C#	a	.	.	.	.
=9	=9	=9	=9	=9	=9	=9	=9
*M4/4	*M4/4	*M4/4	*	*	*M4/4	*M4/4	*M4/4
1I	D:maj	4D	man	A	8.204	newline	guitar
.	.	4r	.	.	.	.	.
.	.	2r	.	.	.	.	.
=10	=10	=10	=10	=10	=10	=10	=10
1I	D:maj	1r	.	.	9.139	.	guitar
=11	=11	=11	=11	=11	=11	=11	=11
1I	D:maj	1r	.	.	10.074	.	guitar
=12	=12	=12	=12	=12	=12	=12	=12
1I	D:maj	2r	.	.	11.009	.	guitar
.	.	4r	.	.	.	.	.
.	.	4F#	He	.	.	.	.
=13	=13	=13	=13	=13	=13	=13	=13
1I	D:maj	2A	lived	.	11.944	newline	voice
.	.	4F#	in	.	.	.	.
.	.	4G	the	.	.	.	.
=14	=14	=14	=14	=14	=14	=14	=14
1I	D:maj	2A	sand	A	12.893	.	voice
.	.	4F#	at	.	.	.	.
.	.	4A	the	.	.	.	.
=15	=15	=15	=15	=15	=15	=15	=15
*M2/4	*M2/4	*M2/4	*	*	*M2/4	*M2/4	*M2/4
2V	A:maj	4G	Isle	.	13.842	.	voice
.	.	4C#	of	.	.	.	.
=16	=16	=16	=16	=16	=16	=16	=16
*M4/4	*M4/4	*M4/4	*	*	*M4/4	*M4/4	*M4/4
1I	D:maj	4D	Man	A	14.317	newline	guitar
.	.	4r	.	.	.	.	.
.	.	2r	.	.	.	.	.
=17	=17	=17	=17	=17	=17	=17	=17
1I	D:maj	1r	.	.	15.27	.	guitar
=18	=18	=18	=18	=18	=18	=18	=18
*>Letter>A	*>Letter>A	*>Letter>A	*>Letter>A	*>Letter>A	*>Letter>A	*>Letter>A	*>Letter>A
*>Label>Trans	*>Label>Trans	*>Label>Trans	*>Label>Trans	*>Label>Trans	*>Label>Trans	*>Label>Trans	*>Label>Trans
1r	N	1r	.	.	16.223	newline	guitar
=19	=19	=19	=19	=19	=19	=19	=19
1r	N	1r	.	.	17.136	.	guitar
=20	=20	=20	=20	=20	=20	=20	=20
1I	D:maj	1r	.	.	18.05	.	guitar
=21	=21	=21	=21	=21	=21	=21	=21
1I	D:maj	2r	.	.	18.963	.	guitar
.	.	4r	.	.	.	.	.
.	.	4G	The	.	.	.	.
=22	=22	=22	=22	=22	=22	=22	=22
*>Letter>B	*>Letter>B	*>Letter>B	*>Letter>B	*>Letter>B	*>Letter>B	*>Letter>B	*>Letter>B
*>Label>Verse	*>Label>Verse	*>Label>Verse	*>Label>Verse	*>Label>Verse	*>Label>Verse	*>Label>Verse	*>Label>Verse
1I	D:maj	2A	kids	.	19.876	newline	voice
.	.	8F#	would	.	.	.	.
.	.	4.G	all	.	.	.	.
=23	=23	=23	=23	=23	=23	=23	=23
1I	D:maj	2A	sing	B	20.818	.	voice
.	.	4F#	he	.	.	.	.
.	.	4A	would	.	.	.	.
=24	=24	=24	=24	=24	=24	=24	=24
*M2/4	*M2/4	*M2/4	*	*	*M2/4	*M2/4	*M2/4
2V	A:maj	4G	take	.	21.761	.	voice
.	.	8C#	the	.	.	.	.
.	.	[8E	wrong	.	.	.	.
=25	=25	=25	=25	=25	=25	=25	=25
*M4/4	*M4/4	*M4/4	*	*	*M4/4	*M4/4	*M4/4
1I	D:maj	4E]	_	.	22.232	newline	guitar
.	.	2.D	key	B	.	.	.
=26	=26	=26	=26	=26	=26	=26	=26
1I	D:maj	1r	.	.	23.148	.	guitar
=27	=27	=27	=27	=27	=27	=27	=27
1I	D:maj	1r	.	.	24.065	.	guitar
=28	=28	=28	=28	=28	=28	=28	=28
1I	D:maj	2r	.	.	24.982	.	guitar
.	.	4F#	So	.	.	.	.
.	.	4G	they	.	.	.	.
=29	=29	=29	=29	=29	=29	=29	=29
1I	D:maj	2A	rode	.	25.898	newline	voice
.	.	4F#	on	.	.	.	.
.	.	4G	his	.	.	.	.
=30	=30	=30	=30	=30	=30	=30	=30
1I	D:maj	2A	head	.	26.824	.	voice
.	.	4F#	in	.	.	.	.
.	.	4A	their	.	.	.	.
=31	=31	=31	=31	=31	=31	=31	=31
*M2/4	*M2/4	*M2/4	*	*	*M2/4	*M2/4	*M2/4
2V	A:maj	4G	fur-	.	27.749	.	voice
.	.	8C#	-ry	b	.	.	.
.	.	[8E	don-	.	.	.	.
=32	=32	=32	=32	=32	=32	=32	=32
*M4/4	*M4/4	*M4/4	*	*	*M4/4	*M4/4	*M4/4
1I	D:maj	4E]	_	.	28.212	newline	guitar
.	.	2D	-key	b	.	.	.
.	.	4r	.	.	.	.	.
=33	=33	=33	=33	=33	=33	=33	=33
1I	D:maj	1r	.	.	29.157	.	guitar
=34	=34	=34	=34	=34	=34	=34	=34
*>Letter>C	*>Letter>C	*>Letter>C	*>Letter>C	*>Letter>C	*>Letter>C	*>Letter>C	*>Letter>C
*>Label>Trans	*>Label>Trans	*>Label>Trans	*>Label>Trans	*>Label>Trans	*>Label>Trans	*>Label>Trans	*>Label>Trans
1I	D:maj	1r	.	.	30.102	newline	guitar
=35	=35	=35	=35	=35	=35	=35	=35
1I	D:maj	1r	.	.	31.015	.	guitar
=36	=36	=36	=36	=36	=36	=36	=36
1I	D:maj	1r	.	.	31.928	.	guitar
=37	=37	=37	=37	=37	=37	=37	=37
1I	D:maj	1r	.	.	32.842	.	guitar
=38	=38	=38	=38	=38	=38	=38	=38
1I	D:maj	1r	.	.	33.755	newline	guitar
=39	=39	=39	=39	=39	=39	=39	=39
1I	D:maj	1r	.	.	34.659	.	guitar
=40	=40	=40	=40	=40	=40	=40	=40
1I	D:maj	1r	.	.	35.563	.	guitar
=41	=41	=41	=41	=41	=41	=41	=41
*	*	*clefG2	*	*	*	*	*
1I	D:maj	2r	.	.	36.467	.	guitar
.	.	4r	.	.	.	.	.
.	.	4a	The	.	.	.	.
=42	=42	=42	=42	=42	=42	=42	=42
*>Letter>D	*>Letter>D	*>Letter>D	*>Letter>D	*>Letter>D	*>Letter>D	*>Letter>D	*>Letter>D
*>Label>Prechorus	*>Label>Prechorus	*>Label>Prechorus	*>Label>Prechorus	*>Label>Prechorus	*>Label>Prechorus	*>Label>Prechorus	*>Label>Prechorus
1IV	G:maj	2b	kids	.	37.371	newline	voice
.	.	8b	could-	.	.	.	.
.	.	4.b	-n't	.	.	.	.
=43	=43	=43	=43	=43	=43	=43	=43
1IV	G:maj	4b	hurt	.	38.284	.	voice
.	.	4b	Jack	D	.	.	.
.	.	4r	.	.	.	.	.
.	.	4b	they	.	.	.	.
=44	=44	=44	=44	=44	=44	=44	=44
1V	A:maj	2cc#	tried	C	39.197	.	voice
.	.	2b	tried	C	.	.	.
=45	=45	=45	=45	=45	=45	=45	=45
1V	A:maj	4a	tried	C	40.111	.	voice
.	.	4r	.	.	.	.	.
.	.	4r	.	.	.	.	.
.	.	4a	They	.	.	.	.
=46	=46	=46	=46	=46	=46	=46	=46
1IV	G:maj	3b	dropped	.	41.024	newline	voice
.	.	3b	things	.	.	.	.
.	.	3b	on	.	.	.	.
=47	=47	=47	=47	=47	=47	=47	=47
1IV	G:maj	4b	his	.	41.942	.	voice
.	.	4b	back	D	.	.	.
.	.	4r	.	.	.	.	.
.	.	4b	they	.	.	.	.
=48	=48	=48	=48	=48	=48	=48	=48
1V	A:maj	2cc#	lied	C	42.861	.	voice
.	.	2b	lied	C	.	.	.
=49	=49	=49	=49	=49	=49	=49	=49
1V	A:maj	2a	lied	C	43.78	.	voice
.	.	2g	lied	C	.	.	.
=50	=50	=50	=50	=50	=50	=50	=50
1V	A:maj	4g	lied	C	44.698	newline	guitar
.	.	[2.a	_	.	.	.	.
=51	=51	=51	=51	=51	=51	=51	=51
1V	A:maj	1a]	_	.	45.581	.	guitar
=52	=52	=52	=52	=52	=52	=52	=52
1V	A:maj	1r	.	.	46.463	.	guitar
=53	=53	=53	=53	=53	=53	=53	=53
*	*	*clefF4	*	*	*	*	*
1V	A:maj	2r	.	.	47.345	.	guitar
.	.	4r	.	.	.	.	.
.	.	4G	They	.	.	.	.
=54	=54	=54	=54	=54	=54	=54	=54
*>Letter>B	*>Letter>B	*>Letter>B	*>Letter>B	*>Letter>B	*>Letter>B	*>Letter>B	*>Letter>B
*>Label>Chorus	*>Label>Chorus	*>Label>Chorus	*>Label>Chorus	*>Label>Chorus	*>Label>Chorus	*>Label>Chorus	*>Label>Chorus
1I	D:maj	8A	could-	.	48.228	newline	voice
.	.	4.A	-n't	.	.	.	.
.	.	2F#	stop	.	.	.	.
=55	=55	=55	=55	=55	=55	=55	=55
1I	D:maj	4A	Jack	D	49.156	.	voice
.	.	[4F#	or	.	.	.	.
.	.	8F#]	_	.	.	.	.
.	.	8A	the	.	.	.	.
.	.	[4G	wa-	.	.	.	.
=56	=56	=56	=56	=56	=56	=56	=56
*M2/4	*M2/4	*M2/4	*	*	*M2/4	*M2/4	*M2/4
2V	A:maj	8G]	_	.	50.085	.	voice
.	.	4C#	-ters	.	.	.	.
.	.	[8E	la-	(D	.	.	.
=57	=57	=57	=57	=57	=57	=57	=57
*M4/4	*M4/4	*M4/4	*	*	*M4/4	*M4/4	*M4/4
1I	D:maj	4E]	_	.	50.549	newline	guitar
.	.	4D	-pping	d)	.	.	.
.	.	2r	.	.	.	.	.
=58	=58	=58	=58	=58	=58	=58	=58
1I	D:maj	1r	.	.	51.501	.	guitar
=59	=59	=59	=59	=59	=59	=59	=59
1I	D:maj	1r	.	.	52.452	.	guitar
=60	=60	=60	=60	=60	=60	=60	=60
1I	D:maj	2r	.	.	53.404	.	guitar
.	.	4F#	and	.	.	.	.
.	.	4G	they	.	.	.	.
=61	=61	=61	=61	=61	=61	=61	=61
1I	D:maj	4A	coul-	.	54.356	newline	voice
.	.	4A	-d'nt	.	.	.	.
.	.	4F#	pre-	.	.	.	.
.	.	[4A	-vent	.	.	.	.
=62	=62	=62	=62	=62	=62	=62	=62
1I	D:maj	4A]	_	.	55.295	.	voice
.	.	2F#	Jack	D	.	.	.
.	.	4A	from	.	.	.	.
=63	=63	=63	=63	=63	=63	=63	=63
*M2/4	*M2/4	*M2/4	*	*	*M2/4	*M2/4	*M2/4
2V	A:maj	4G	fee-	.	56.234	.	voice
.	.	4C#	-lin'	.	.	.	.
=64	=64	=64	=64	=64	=64	=64	=64
*M4/4	*M4/4	*M4/4	*	*	*M4/4	*M4/4	*M4/4
1I	D:maj	4E	ha-	(D	56.703	newline	guitar
.	.	2D	-ppy	d)	.	.	.
.	.	4r	.	.	.	.	.
=65	=65	=65	=65	=65	=65	=65	=65
1I	D:maj	1r	.	.	57.645	.	guitar
=66	=66	=66	=66	=66	=66	=66	=66
*>Letter>E2	*>Letter>E2	*>Letter>E2	*>Letter>E2	*>Letter>E2	*>Letter>E2	*>Letter>E2	*>Letter>E2
*>Label>Interlude	*>Label>Interlude	*>Label>Interlude	*>Label>Interlude	*>Label>Interlude	*>Label>Interlude	*>Label>Interlude	*>Label>Interlude
1V	A:maj	1r	.	.	58.588	newline	guitar
=67	=67	=67	=67	=67	=67	=67	=67
1V	A:maj	1r	.	.	59.475	.	guitar
=68	=68	=68	=68	=68	=68	=68	=68
1I	D:maj	1r	.	.	60.362	.	guitar
=69	=69	=69	=69	=69	=69	=69	=69
1I	D:maj	1r	.	.	61.249	.	guitar
=70	=70	=70	=70	=70	=70	=70	=70
1V	A:maj	1r	.	.	62.136	newline	guitar
=71	=71	=71	=71	=71	=71	=71	=71
1V	A:maj	1r	.	.	63.025	.	guitar
=72	=72	=72	=72	=72	=72	=72	=72
1I	D:maj	1r	.	.	63.915	.	guitar
=73	=73	=73	=73	=73	=73	=73	=73
1I	D:maj	1r	.	.	64.805	.	guitar
=74	=74	=74	=74	=74	=74	=74	=74
1V	A:maj	1r	.	.	65.695	newline	guitar
=75	=75	=75	=75	=75	=75	=75	=75
1V	A:maj	1r	.	.	66.573	.	guitar
=76	=76	=76	=76	=76	=76	=76	=76
1I	D:maj	1r	.	.	67.451	.	guitar
=77	=77	=77	=77	=77	=77	=77	=77
1I	D:maj	1r	.	.	68.33	.	guitar
=78	=78	=78	=78	=78	=78	=78	=78
1V	A:maj	1r	.	.	69.208	newline	guitar
=79	=79	=79	=79	=79	=79	=79	=79
1V	A:maj	1r	.	.	70.07	.	guitar
=80	=80	=80	=80	=80	=80	=80	=80
*>Letter>C	*>Letter>C	*>Letter>C	*>Letter>C	*>Letter>C	*>Letter>C	*>Letter>C	*>Letter>C
*>Label>Trans	*>Label>Trans	*>Label>Trans	*>Label>Trans	*>Label>Trans	*>Label>Trans	*>Label>Trans	*>Label>Trans
1I	D:maj	1r	.	.	70.933	newline	guitar
=81	=81	=81	=81	=81	=81	=81	=81
1I	D:maj	1r	.	.	71.845	.	guitar
=82	=82	=82	=82	=82	=82	=82	=82
1I	D:maj	1r	.	.	72.758	.	guitar
=83	=83	=83	=83	=83	=83	=83	=83
1I	D:maj	2r	.	.	73.671	.	guitar
.	.	4F#	But	.	.	.	.
.	.	4G	they	.	.	.	.
=84	=84	=84	=84	=84	=84	=84	=84
*>Letter>B	*>Letter>B	*>Letter>B	*>Letter>B	*>Letter>B	*>Letter>B	*>Letter>B	*>Letter>B
*>Label>Chorus	*>Label>Chorus	*>Label>Chorus	*>Label>Chorus	*>Label>Chorus	*>Label>Chorus	*>Label>Chorus	*>Label>Chorus
1I	D:maj	8A	could-	.	74.584	newline	voice
.	.	4.A	-n't	.	.	.	.
.	.	2F#	stop	.	.	.	.
=85	=85	=85	=85	=85	=85	=85	=85
1I	D:maj	4A	Jack	D	75.533	.	voice
.	.	[4F#	or	.	.	.	.
.	.	8F#]	_	.	.	.	.
.	.	8A	the	.	.	.	.
.	.	[4G	wa-	.	.	.	.
=86	=86	=86	=86	=86	=86	=86	=86
*M2/4	*M2/4	*M2/4	*	*	*M2/4	*M2/4	*M2/4
2V	A:maj	8G]	_	.	76.483	.	voice
.	.	4C#	-ters	.	.	.	.
.	.	[8E	la-	(D	.	.	.
=87	=87	=87	=87	=87	=87	=87	=87
*M4/4	*M4/4	*M4/4	*	*	*M4/4	*M4/4	*M4/4
1I	D:maj	4E]	_	.	76.957	newline	guitar
.	.	2.D	-pping	d)	.	.	.
=88	=88	=88	=88	=88	=88	=88	=88
1I	D:maj	1r	.	.	77.891	.	guitar
=89	=89	=89	=89	=89	=89	=89	=89
1I	D:maj	1r	.	.	78.824	.	guitar
=90	=90	=90	=90	=90	=90	=90	=90
1I	D:maj	2r	.	.	79.758	.	guitar
.	.	4F#	and	.	.	.	.
.	.	4G	they	.	.	.	.
=91	=91	=91	=91	=91	=91	=91	=91
1I	D:maj	4A	coul-	.	80.692	newline	voice
.	.	4A	-d'nt	.	.	.	.
.	.	4F#	pre-	.	.	.	.
.	.	[4A	-vent	.	.	.	.
=92	=92	=92	=92	=92	=92	=92	=92
1I	D:maj	4A]	_	.	81.61	.	voice
.	.	2F#	Jack	D	.	.	.
.	.	4A	from	.	.	.	.
=93	=93	=93	=93	=93	=93	=93	=93
*M2/4	*M2/4	*M2/4	*	*	*M2/4	*M2/4	*M2/4
2V	A:maj	4G	fee-	.	82.528	.	voice
.	.	4C#	-lin'	.	.	.	.
=94	=94	=94	=94	=94	=94	=94	=94
*M4/4	*M4/4	*M4/4	*	*	*M4/4	*M4/4	*M4/4
1I	D:maj	4E	ha-	(D	82.987	newline	guitar
.	.	2D	-ppy	d)	.	.	.
.	.	4r	.	.	.	.	.
=95	=95	=95	=95	=95	=95	=95	=95
1I	D:maj	1r	.	.	83.921	.	guitar
=96	=96	=96	=96	=96	=96	=96	=96
*>Letter>E	*>Letter>E	*>Letter>E	*>Letter>E	*>Letter>E	*>Letter>E	*>Letter>E	*>Letter>E
*>Label>Interlude	*>Label>Interlude	*>Label>Interlude	*>Label>Interlude	*>Label>Interlude	*>Label>Interlude	*>Label>Interlude	*>Label>Interlude
1V	A:maj	1r	.	.	84.855	newline	guitar
=97	=97	=97	=97	=97	=97	=97	=97
1V	A:maj	1r	.	.	85.742	.	guitar
=98	=98	=98	=98	=98	=98	=98	=98
1I	D:maj	1r	.	.	86.628	.	guitar
=99	=99	=99	=99	=99	=99	=99	=99
1I	D:maj	1r	.	.	87.515	.	guitar
=100	=100	=100	=100	=100	=100	=100	=100
1V	A:maj	1r	.	.	88.401	newline	guitar
=101	=101	=101	=101	=101	=101	=101	=101
1V	A:maj	1r	.	.	89.29	.	guitar
=102	=102	=102	=102	=102	=102	=102	=102
1I	D:maj	1r	.	.	90.178	.	guitar
=103	=103	=103	=103	=103	=103	=103	=103
1I	D:maj	1r	.	.	91.067	.	guitar
=104	=104	=104	=104	=104	=104	=104	=104
1IV	G:maj	1r	.	.	91.955	newline	guitar
=105	=105	=105	=105	=105	=105	=105	=105
1IV	G:maj	1r	.	.	92.846	.	guitar
=106	=106	=106	=106	=106	=106	=106	=106
1V	A:maj	1r	.	.	93.737	.	guitar
=107	=107	=107	=107	=107	=107	=107	=107
1I	D:maj	1r	.	.	94.628	.	guitar
=108	=108	=108	=108	=108	=108	=108	=108
1IV	G:maj	1r	.	.	95.519	newline	guitar
=109	=109	=109	=109	=109	=109	=109	=109
1IV	G:maj	1r	.	.	96.415	.	guitar
=110	=110	=110	=110	=110	=110	=110	=110
1V	A:maj	1r	.	.	97.311	newline	guitar
=111	=111	=111	=111	=111	=111	=111	=111
1V	A:maj	1r	.	.	98.205	.	guitar
=112	=112	=112	=112	=112	=112	=112	=112
1V	A:maj	1r	.	.	99.1	.	guitar
=113	=113	=113	=113	=113	=113	=113	=113
1V	A:maj	1r	.	.	99.994	.	guitar
=114	=114	=114	=114	=114	=114	=114	=114
1V	A:maj	1r	.	.	100.889	newline	guitar
=115	=115	=115	=115	=115	=115	=115	=115
1V	A:maj	1r	.	.	101.804	.	guitar
=116	=116	=116	=116	=116	=116	=116	=116
1V	A:maj	1r	.	.	102.719	.	guitar
=117	=117	=117	=117	=117	=117	=117	=117
1V	A:maj	1r	.	.	103.635	.	guitar
=118	=118	=118	=118	=118	=118	=118	=118
*>Letter>D	*>Letter>D	*>Letter>D	*>Letter>D	*>Letter>D	*>Letter>D	*>Letter>D	*>Letter>D
*>Label>Prechorus	*>Label>Prechorus	*>Label>Prechorus	*>Label>Prechorus	*>Label>Prechorus	*>Label>Prechorus	*>Label>Prechorus	*>Label>Prechorus
1IV	G:maj	2b	Kids	.	104.55	newline	voice
.	.	8b	could-	.	.	.	.
.	.	4.b	-n't	.	.	.	.
=119	=119	=119	=119	=119	=119	=119	=119
1IV	G:maj	4b	hurt	.	105.475	.	voice
.	.	4b	Jack	D	.	.	.
.	.	4r	.	.	.	.	.
.	.	4b	they	.	.	.	.
=120	=120	=120	=120	=120	=120	=120	=120
1V	A:maj	2cc#	tried	C	106.4	.	voice
.	.	2b	tried	C	.	.	.
=121	=121	=121	=121	=121	=121	=121	=121
1V	A:maj	2a	tried	C	107.325	.	voice
.	.	4r	.	.	.	.	.
.	.	4a	They	.	.	.	.
=122	=122	=122	=122	=122	=122	=122	=122
1IV	G:maj	3b	dropped	.	108.25	newline	voice
.	.	3b	things	.	.	.	.
.	.	3b	on	.	.	.	.
=123	=123	=123	=123	=123	=123	=123	=123
1IV	G:maj	4b	his	.	109.155	.	voice
.	.	4b	back	D	.	.	.
.	.	4r	.	.	.	.	.
.	.	4b	the	.	.	.	.
=124	=124	=124	=124	=124	=124	=124	=124
1V	A:maj	2cc#	lied	.	110.059	.	voice
.	.	2b	lied	C	.	.	.
=125	=125	=125	=125	=125	=125	=125	=125
1V	A:maj	2a	lied	C	110.964	.	voice
.	.	2g	lied	C	.	.	.
=126	=126	=126	=126	=126	=126	=126	=126
1V	A:maj	4g	lied	C	111.869	newline	guitar
.	.	[2.a	_	.	.	.	.
=127	=127	=127	=127	=127	=127	=127	=127
1V	A:maj	1a]	_	.	112.763	.	guitar
=128	=128	=128	=128	=128	=128	=128	=128
1V	A:maj	1r	.	.	113.658	.	guitar
=129	=129	=129	=129	=129	=129	=129	=129
1V	A:maj	2r	.	.	114.553	.	guitar
.	.	4r	.	.	.	.	.
*	*	*clefF4	*	*	*	*	*
.	.	4G	They	.	.	.	.
=130	=130	=130	=130	=130	=130	=130	=130
*>Letter>B	*>Letter>B	*>Letter>B	*>Letter>B	*>Letter>B	*>Letter>B	*>Letter>B	*>Letter>B
*>Label>Chorus	*>Label>Chorus	*>Label>Chorus	*>Label>Chorus	*>Label>Chorus	*>Label>Chorus	*>Label>Chorus	*>Label>Chorus
1I	D:maj	8A	could-	.	115.447	newline	voice
.	.	4.A	-n't	.	.	.	.
.	.	4F#	stop	.	.	.	.
.	.	[4A	Jack	D	.	.	.
=131	=131	=131	=131	=131	=131	=131	=131
1I	D:maj	4A]	_	.	116.372	.	voice
.	.	2F#	or	.	.	.	.
.	.	4A	the	.	.	.	.
=132	=132	=132	=132	=132	=132	=132	=132
*M2/4	*M2/4	*M2/4	*	*	*M2/4	*M2/4	*M2/4
2V	A:maj	4G	wa-	.	117.297	.	voice
.	.	4C#	-ters	.	.	.	.
=133	=133	=133	=133	=133	=133	=133	=133
*M4/4	*M4/4	*M4/4	*	*	*M4/4	*M4/4	*M4/4
1I	D:maj	4E	la-	(D	117.759	newline	guitar
.	.	2D	-pping	d)	.	.	.
.	.	4r	.	.	.	.	.
=134	=134	=134	=134	=134	=134	=134	=134
1I	D:maj	1r	.	.	118.689	.	guitar
=135	=135	=135	=135	=135	=135	=135	=135
1I	D:maj	1r	.	.	119.619	.	guitar
=136	=136	=136	=136	=136	=136	=136	=136
1I	D:maj	2r	.	.	120.549	.	guitar
.	.	4F#	and	.	.	.	.
.	.	4G	they	.	.	.	.
=137	=137	=137	=137	=137	=137	=137	=137
1I	D:maj	4A	coul-	.	121.478	newline	voice
.	.	4A	-d'nt	.	.	.	.
.	.	4F#	pre-	.	.	.	.
.	.	[4A	-vent	.	.	.	.
=138	=138	=138	=138	=138	=138	=138	=138
1I	D:maj	4A]	_	.	122.403	.	voice
.	.	2F#	Jack	D	.	.	.
.	.	4A	from	.	.	.	.
=139	=139	=139	=139	=139	=139	=139	=139
*M2/4	*M2/4	*M2/4	*	*	*M2/4	*M2/4	*M2/4
2V	A:maj	4G	fee-	.	123.327	.	voice
.	.	4C#	-lin'	.	.	.	.
=140	=140	=140	=140	=140	=140	=140	=140
*M4/4	*M4/4	*M4/4	*	*	*M4/4	*M4/4	*M4/4
1I	D:maj	4E	ha-	(D	123.789	newline	guitar
.	.	2D	-ppy	d)	.	.	.
.	.	4r	.	.	.	.	.
=141	=141	=141	=141	=141	=141	=141	=141
1I	D:maj	1r	.	.	124.729	.	guitar
=142	=142	=142	=142	=142	=142	=142	=142
*>Letter>A	*>Letter>A	*>Letter>A	*>Letter>A	*>Letter>A	*>Letter>A	*>Letter>A	*>Letter>A
*>Label>Coda	*>Label>Coda	*>Label>Coda	*>Label>Coda	*>Label>Coda	*>Label>Coda	*>Label>Coda	*>Label>Coda
1r	N	1r	.	.	125.669	newline	guitar
=143	=143	=143	=143	=143	=143	=143	=143
1r	N	1r	.	.	126.604	.	guitar
=144	=144	=144	=144	=144	=144	=144	=144
1I	D:maj	1r	.	.	127.539	.	guitar
1r;	N	r;	.	.	129.059	.	r
1r;	N	r;	.	.	131.704	.	r
1r;	N	r;	.	.	132.101	.	r
*-	*-	*-	*-	*-	*-	*-	*-
!!!BillboardChartDate: 1967/04/22
!!!BillboardPeak: 24
!!!BillboardWeeksOnChart: 9
!!!COC: The Who
!!!ENC: Nathaniel Condit-Schultz
!!!EST: Awating manual error checking and editing.
!!!OTL: Happy Jack
!!!RDF**harte: Chris Harte's syntax, used by MIREX
!!!RDF**harmony: **recip + pitch class of root + harmonic quality
!!!RDF**leadinstrument: original McGill primary instrumentation annotation
!!!RDF**phrase: newline = linebreak in original McGill transcription
!!!RDF**timestamp: McGill audio timestamp in seconds
!!!RDT: 2017/01/12/
!!!SampleActualRank: 83
!!!SampleID#: 0891
!!!SampleTargetRank: 82
!!!MBID: 8a25cb86-620b-49a7-9058-10c683828fce
